X: 305534
M: 6/8
L: 1/8
K: G
dBg ecg | dBg ecg | ded dcB | AAA A3 |\
dBg gBe | ^cAe eda | adg fge | d2d' d2 :|
|: z |\
dbd cac | BgB ABc | dbd cac | BgB A3 |\


